apps/frontend/src/assets/svg/ranks/1.svg

<svg width="278" height="246" viewBox="0 0 278 246" fill="none" xmlns="http://www.w3.org/2000/svg">
<g clip-path="url(#clip0_20_228)">
<path d="M111.695 16.7551L111.695 16.7551C109.947 17.0185 108.268 17.6188 106.789 18.5388L106.789 18.5391L6.51067 80.8795C3.31958 82.8633 1.5 86.039 1.5 89.3448V186.468C1.5 190.69 4.47032 194.62 9.20074 196.19L107.214 228.715L111.695 16.7551ZM111.695 16.7551C113.985 16.41 116.373 16.6476 118.56 17.4905L227.586 59.5014C229.41 60.2054 230.963 61.2933 232.159 62.6246C233.032 63.5976 233.708 64.6808 234.137 65.846L275.931 179.292C276.911 181.956 276.62 184.859 275.097 187.346L275.097 187.346C273.569 189.845 270.913 191.731 267.702 192.496L267.701 192.496L114.619 229.027L114.618 229.027M111.695 16.7551L114.618 229.027M114.618 229.027C113.587 229.274 112.526 229.397 111.465 229.397C110.563 229.397 109.653 229.297 108.751 229.113M114.618 229.027L108.751 229.113M108.751 229.113C108.21 229.002 107.7 228.876 107.215 228.716L108.751 229.113Z" fill="#4E4E4E" stroke="white" stroke-width="3"/>
<path d="M118.56 17.4905C118.56 17.4905 118.56 17.4905 118.56 17.4905C116.879 16.8427 115.079 16.5524 113.297 16.6094L137.27 127.043L230.921 61.4398C229.955 60.6442 228.834 59.9834 227.587 59.5025L118.56 17.4905ZM118.56 17.4905L227.586 59.5024L118.56 17.4905Z" fill="#707072" stroke="white" stroke-width="3"/>
<path d="M114.619 229.026L114.62 229.026L267.702 192.495L267.702 192.495C270.914 191.73 273.57 189.844 275.098 187.345L275.098 187.345C276.619 184.859 276.911 181.956 275.931 179.292L114.619 229.026ZM114.619 229.026C113.587 229.273 112.527 229.396 111.466 229.396C111.094 229.396 110.72 229.379 110.347 229.346L137.585 130.485L232.982 63.6586C233.465 64.3467 233.855 65.0785 234.137 65.8458C234.137 65.8459 234.137 65.8459 234.137 65.846L275.931 179.292L114.619 229.026Z" fill="#474748" stroke="white" stroke-width="3"/>
</g>
<defs>
<clipPath id="clip0_20_228">
<rect width="278" height="246" fill="white"/>
</clipPath>
</defs>
</svg>

<svg xmlns="http://www.w3.org/2000/svg" width="278" height="246" fill="none"><g stroke="#fff" stroke-width="3" clip-path="url(#a)"><path fill="#4E4E4E" d="M111.695 16.755a12.944 12.944 0 0 0-4.906 1.784L6.511 80.88C3.32 82.863 1.5 86.04 1.5 89.345v97.123c0 4.222 2.97 8.152 7.7 9.722l98.014 32.525 4.481-211.96Zm0 0a13.551 13.551 0 0 1 6.865.736L227.586 59.5a11.878 11.878 0 0 1 4.573 3.124c.873.973 1.549 2.056 1.978 3.221l41.794 113.446c.98 2.664.689 5.567-.834 8.054-1.528 2.499-4.184 4.385-7.395 5.15h-.001l-153.082 36.531h-.001m-2.923-212.272 2.923 212.272m0 0c-1.031.247-2.092.37-3.153.37-.902 0-1.812-.1-2.714-.284m5.867-.086-5.867.086m0 0a13.658 13.658 0 0 1-1.536-.397l1.536.397Z"/><path fill="#707072" d="M118.56 17.49a13.468 13.468 0 0 0-5.263-.88l23.973 110.433 93.651-65.603a12.067 12.067 0 0 0-3.334-1.938L118.56 17.49Zm0 0 109.026 42.012L118.56 17.49Z"/><path fill="#474748" d="M114.619 229.026h.001l153.082-36.531c3.212-.765 5.868-2.651 7.396-5.15 1.521-2.486 1.813-5.389.833-8.053l-161.312 49.734Zm0 0c-1.032.247-2.092.37-3.153.37-.372 0-.746-.017-1.119-.05l27.238-98.861 95.397-66.826c.483.688.873 1.42 1.155 2.187l41.794 113.446-161.312 49.734Z"/></g><defs><clipPath id="a"><path fill="#fff" d="M0 0h278v246H0z"/></clipPath></defs></svg>
